X:1
T:Vinum schenk ein
T:Vinum schenk ein
T:Erasmus Widmann
C:Erasmus Widmann
%%score [ 1 2 3 4 ]
L:1/8
Q:1/4=200
M:6/4
K:G
V:1 treble nm="Soprano" snm="S"
V:2 treble nm="Alto" snm="A"
V:3 treble-8 nm="Tenor" snm="T"
V:4 bass nm="Bass" snm="B"
V:1
 z6 B2 B2 B2 | B6 z6 | B2 B2 B2 B6 | B2 A2 G2 F6 | G2 G2 F2 G6 | z6 A2 A2 A2 | A6 z6 | %7
w: Vi- num schenk|ein!|Laß was- ser sein!|Fa la la la,|fa la la la.|Der Re- ben-|saft|
w: Der Wein ist|gut,|macht frisch- en Mut!|||Me- lan- cho-|ley|
w: Drum Bru- der|mein,|weich nit vom Wein!|||Ver- red ihn|nit,|
 A2 A2 A2 A6 | d2 c2 A2 B3 A G2 | d4 ^c2 d6 |: G2 G2 A2 B6 | A2 G2 G2 F6 | G2 A2 B2 c6 | %13
w: gibt gu- te Kraft,|fa la la la la la,|fa- la la,|macht jung und alt|fröh- lich gar bald,|drum meid das Bier,|
w: ver- treibt er frei,|||ab'r Was- ser- güss'|mach- en viel Flüss',|käl- ten den Leib,|
w: das ist mein Bitt.|||Ich rat für- wahr:|den Wein nicht spar.|Wein gnug du findst|
 A2 G2 A2 (B2 AG F2) | G2 G2 F2 G6 :| %15
w: trink Wein da- für, _ _ _|fa la la la.|
w: beim Wein drum bleib, _ _ _|_ _ _ _|
w: wanns Geld nur gwinnst. _ _ _|_ _ _ _|
V:2
 z6 G2 G2 G2 | G6 z6 | G2 G2 G2 G6 | G2 F2 D2 D6 | D2 E2 D2 D6 | z6 F2 F2 F2 | F6 z6 | %7
w: Vi- num schenk|ein!|Laß Was- ser sein!|Fa la la la,|fa la la la.|Der Re- ben-|saft|
w: Der Wein ist|gut,|macht frisch- en Mut!|||Me- lan- cho-|ley|
w: Drum Bru- der|mein,|weich nit vom Wein!|||Ver- red ihn|nit,|
 F2 F2 F2 F6 | A2 G2 F2 E2 D2 E2 | F2 E4 F6 |: D2 E2 E2 G6 | F2 D2 E2 A,6 | C2 E2 F2 G6 | %13
w: gibt gu- te Kraft,|fa la la la la la,|fa la la,|macht jung und alt|fröh- lich gar bald,|drum meid das Bier,|
w: ver- treibt er frei,|||ab'r Was- ser- güss'|mach- en viel Flüss',|käl- ten den Leib,|
w: das ist mein Bitt.|||Ich rat für- wahr:|den Wein nicht spar.|Wein gnug du findst|
 F2 E2 D2 G2 C2 D2 | D2 E2 D2 D6 :| %15
w: trink Wein da- für, fa la|la la la la.|
w: beim Wein drum bleib, * *||
w: wanns Geld nur gwinnst. * *||
V:3
 d2 d2 d2 d6 | z6 d2 d2 d2 | d6 z6 | B2 d2 B2 A6 | B2 A4 B6 | d2 d2 d2 d6 | z6 d2 d2 d2 | d6 z6 | %8
w: Vi- num schenk ein!|Laß Was- ser|sein!|Fa la la la,|fa la la.|Der Re- ben- saft|gibt gu- te|Kraft,|
w: Der Wein ist gut,|macht frisch- en|Mut!|||Me- lan- cho- ley|ver- treibt er|frei;|
w: Drum Bru- der mein,|weich nit vom|Wein!|||Ver- red ihn nit,|das ist mein|Bitt.|
 f2 e2 d2 B2 B3 ^c | d2 A4 A6 |: B2 B2 ^c2 d6 | d2 d2 ^c2 d6 | e2 =c2 d2 e6 | d2 B2 A2 d2 A2 A2 | %14
w: fa la la la, fa la|la la la,|macht jung und alt|fröh- lich gar bald,|drum meid das Bier,|trink Wein da- für, fa la|
w: ||ab'r Was- ser- güss'|mach- en viel Flüss',|käl- ten den Leib,|beim Wein drum bleib, * *|
w: ||Ich rat für- wahr:|den Wein nicht spar.|Wein gnug du findst|wanns Geld nur gwinsst. * *|
 B2 A4 B6 :| %15
w: la la la.|
w: |
w: |
V:4
 z6 G,,2 G,,2 G,,2 | G,,6 z6 | G,,2 G,,2 G,,2 G,,6 | E,2 F,2 G,2 D,6 | B,,2 C,2 D,2 G,,6 | %5
w: Vi- num schenk|ein!|Laß Was- ser sein!|Fa la la la,|fa la la la.|
w: Der Wein ist|gut,|macht frisch- en Mut!|||
w: Drum Bru- der|mein,|weich nicht vom Wein!|||
 z6 D,2 D,2 D,2 | D,6 z6 | D,2 D,2 D,2 D,6 | D,2 E,2 F,2 G,3 F, E,2 | D,2 A,2 A,,2 D,6 |: %10
w: Der Re- ben-|saft|gibt gu- te Kraft,|fa la la la la la,|fa la la la,|
w: Me- lan- cho-|ley|ver- treibt er frei,|||
w: Ver- red ihn|nit,|das ist mein Bitt.|||
 G,2 E,2 A,2 G,6 | D,2 B,,2 E,2 D,6 | C,2 A,,2 D,2 C,6 | D,2 E,2 F,2 (G,2 F,E, D,2) | %14
w: macht jung und alt|fröh- lich gar bald,|drum meid das Bier,|trink Wein da- für, _ _ _|
w: ab'r Was- ser- güss'|mach- en viel Flüss',|käl- ten den Leib,|beim Wein drum bleib, _ _ _|
w: Ich rat für- wahr:|den Wein nicht spar.|Wein gnug du findst|wanns Geld nur gwinsst. _ _ _|
 B,,2 C,2 D,2 G,,6 :| %15
w: fa la la la.|
w: _ _ _ _|
w: _ _ _ _|

